namanganliklar-24/img/logo.svg

<svg width="300" height="21" viewBox="0 0 300 21" fill="none" xmlns="http://www.w3.org/2000/svg">
<path d="M1.66 20C1.47333 20 1.30533 19.9347 1.156 19.804C1.02533 19.6547 0.96 19.4867 0.96 19.3V1.1C0.96 0.894666 1.02533 0.726666 1.156 0.595999C1.30533 0.465332 1.47333 0.399999 1.66 0.399999H4.628C5.09467 0.399999 5.412 0.577332 5.58 0.931998L12.412 11.684V1.1C12.412 0.894666 12.4773 0.726666 12.608 0.595999C12.7573 0.465332 12.9253 0.399999 13.112 0.399999H16.472C16.6773 0.399999 16.8453 0.465332 16.976 0.595999C17.1067 0.726666 17.172 0.894666 17.172 1.1V19.272C17.172 19.4773 17.1067 19.6547 16.976 19.804C16.8453 19.9347 16.6773 20 16.472 20H13.476C13.0653 20 12.7573 19.8227 12.552 19.468L5.72 9.108V19.3C5.72 19.4867 5.65467 19.6547 5.524 19.804C5.39333 19.9347 5.22533 20 5.02 20H1.66ZM19.965 20C19.8157 20 19.6757 19.944 19.545 19.832C19.433 19.7013 19.377 19.5613 19.377 19.412C19.377 19.3 19.3863 19.216 19.405 19.16L25.985 1.184C26.041 0.959999 26.1623 0.773333 26.349 0.623999C26.5357 0.474665 26.7783 0.399999 27.077 0.399999H31.221C31.5197 0.399999 31.7623 0.474665 31.949 0.623999C32.1357 0.773333 32.257 0.959999 32.313 1.184L38.865 19.16L38.921 19.412C38.921 19.5613 38.8557 19.7013 38.725 19.832C38.613 19.944 38.473 20 38.305 20H34.861C34.413 20 34.1143 19.804 33.965 19.412L32.873 16.556H25.397L24.333 19.412C24.1837 19.804 23.8757 20 23.409 20H19.965ZM31.753 12.524L29.149 5.132L26.545 12.524H31.753ZM41.828 20C41.6413 20 41.4733 19.9347 41.324 19.804C41.1933 19.6547 41.128 19.4867 41.128 19.3V1.1C41.128 0.894666 41.1933 0.726666 41.324 0.595999C41.4733 0.465332 41.6413 0.399999 41.828 0.399999H44.852C45.3 0.399999 45.6266 0.605332 45.832 1.016L50.76 9.836L55.688 1.016C55.8933 0.605332 56.22 0.399999 56.668 0.399999H59.664C59.8693 0.399999 60.0373 0.465332 60.168 0.595999C60.3173 0.726666 60.392 0.894666 60.392 1.1V19.3C60.392 19.5053 60.3173 19.6733 60.168 19.804C60.0373 19.9347 59.8693 20 59.664 20H56.332C56.1266 20 55.9493 19.9347 55.8 19.804C55.6693 19.6733 55.604 19.5053 55.604 19.3V8.8L52.468 14.652C52.2253 15.0813 51.8986 15.296 51.488 15.296H50.032C49.7893 15.296 49.5933 15.24 49.444 15.128C49.2946 15.016 49.164 14.8573 49.052 14.652L45.888 8.8V19.3C45.888 19.4867 45.8226 19.6547 45.692 19.804C45.5613 19.9347 45.3933 20 45.188 20H41.828ZM63.1955 20C63.0461 20 62.9061 19.944 62.7755 19.832C62.6635 19.7013 62.6075 19.5613 62.6075 19.412C62.6075 19.3 62.6168 19.216 62.6355 19.16L69.2155 1.184C69.2715 0.959999 69.3928 0.773333 69.5795 0.623999C69.7661 0.474665 70.0088 0.399999 70.3075 0.399999H74.4515C74.7501 0.399999 74.9928 0.474665 75.1795 0.623999C75.3661 0.773333 75.4875 0.959999 75.5435 1.184L82.0955 19.16L82.1515 19.412C82.1515 19.5613 82.0861 19.7013 81.9555 19.832C81.8435 19.944 81.7035 20 81.5355 20H78.0915C77.6435 20 77.3448 19.804 77.1955 19.412L76.1035 16.556H68.6275L67.5635 19.412C67.4141 19.804 67.1061 20 66.6395 20H63.1955ZM74.9835 12.524L72.3795 5.132L69.7755 12.524H74.9835ZM85.0584 20C84.8718 20 84.7038 19.9347 84.5544 19.804C84.4238 19.6547 84.3584 19.4867 84.3584 19.3V1.1C84.3584 0.894666 84.4238 0.726666 84.5544 0.595999C84.7038 0.465332 84.8718 0.399999 85.0584 0.399999H88.0264C88.4931 0.399999 88.8104 0.577332 88.9784 0.931998L95.8104 11.684V1.1C95.8104 0.894666 95.8758 0.726666 96.0064 0.595999C96.1558 0.465332 96.3238 0.399999 96.5104 0.399999H99.8704C100.076 0.399999 100.244 0.465332 100.374 0.595999C100.505 0.726666 100.57 0.894666 100.57 1.1V19.272C100.57 19.4773 100.505 19.6547 100.374 19.804C100.244 19.9347 100.076 20 99.8704 20H96.8744C96.4638 20 96.1558 19.8227 95.9504 19.468L89.1184 9.108V19.3C89.1184 19.4867 89.0531 19.6547 88.9224 19.804C88.7918 19.9347 88.6238 20 88.4184 20H85.0584ZM112.575 20.28C109.887 20.28 107.787 19.6267 106.275 18.32C104.763 16.9947 103.961 15.1187 103.867 12.692C103.849 12.1507 103.839 11.292 103.839 10.116C103.839 8.94 103.849 8.08133 103.867 7.54C103.961 5.16933 104.773 3.34 106.303 2.052C107.853 0.763999 109.943 0.119999 112.575 0.119999C114.349 0.119999 115.889 0.409332 117.195 0.987999C118.521 1.56667 119.529 2.304 120.219 3.2C120.929 4.096 121.302 5.02 121.339 5.972C121.339 6.14 121.274 6.28 121.143 6.392C121.031 6.504 120.891 6.56 120.723 6.56H116.635C116.449 6.56 116.299 6.532 116.187 6.476C116.075 6.42 115.982 6.31733 115.907 6.168C115.665 5.62667 115.282 5.16 114.759 4.768C114.237 4.35733 113.509 4.152 112.575 4.152C110.354 4.152 109.187 5.328 109.075 7.68C109.057 8.20267 109.047 9.01467 109.047 10.116C109.047 11.1987 109.057 12.0107 109.075 12.552C109.187 15.016 110.382 16.248 112.659 16.248C113.761 16.248 114.638 15.968 115.291 15.408C115.963 14.8293 116.299 13.952 116.299 12.776V12.244H113.667C113.462 12.244 113.294 12.1787 113.163 12.048C113.033 11.8987 112.967 11.7213 112.967 11.516V9.444C112.967 9.23867 113.033 9.07067 113.163 8.94C113.294 8.79067 113.462 8.716 113.667 8.716H120.723C120.929 8.716 121.097 8.79067 121.227 8.94C121.358 9.07067 121.423 9.23867 121.423 9.444V12.636C121.423 14.2227 121.059 15.5947 120.331 16.752C119.603 17.8907 118.567 18.768 117.223 19.384C115.898 19.9813 114.349 20.28 112.575 20.28ZM123.078 20C122.929 20 122.789 19.944 122.658 19.832C122.546 19.7013 122.49 19.5613 122.49 19.412C122.49 19.3 122.5 19.216 122.518 19.16L129.098 1.184C129.154 0.959999 129.276 0.773333 129.462 0.623999C129.649 0.474665 129.892 0.399999 130.19 0.399999H134.334C134.633 0.399999 134.876 0.474665 135.062 0.623999C135.249 0.773333 135.37 0.959999 135.426 1.184L141.978 19.16L142.034 19.412C142.034 19.5613 141.969 19.7013 141.838 19.832C141.726 19.944 141.586 20 141.418 20H137.974C137.526 20 137.228 19.804 137.078 19.412L135.986 16.556H128.51L127.446 19.412C127.297 19.804 126.989 20 126.522 20H123.078ZM134.866 12.524L132.262 5.132L129.658 12.524H134.866ZM144.941 20C144.755 20 144.587 19.9347 144.437 19.804C144.307 19.6547 144.241 19.4867 144.241 19.3V1.1C144.241 0.894666 144.307 0.726666 144.437 0.595999C144.587 0.465332 144.755 0.399999 144.941 0.399999H147.909C148.376 0.399999 148.693 0.577332 148.861 0.931998L155.693 11.684V1.1C155.693 0.894666 155.759 0.726666 155.889 0.595999C156.039 0.465332 156.207 0.399999 156.393 0.399999H159.753C159.959 0.399999 160.127 0.465332 160.257 0.595999C160.388 0.726666 160.453 0.894666 160.453 1.1V19.272C160.453 19.4773 160.388 19.6547 160.257 19.804C160.127 19.9347 159.959 20 159.753 20H156.757C156.347 20 156.039 19.8227 155.833 19.468L149.001 9.108V19.3C149.001 19.4867 148.936 19.6547 148.805 19.804C148.675 19.9347 148.507 20 148.301 20H144.941ZM165.066 20C164.88 20 164.712 19.9347 164.562 19.804C164.432 19.6547 164.366 19.4867 164.366 19.3V1.1C164.366 0.894666 164.432 0.726666 164.562 0.595999C164.712 0.465332 164.88 0.399999 165.066 0.399999H168.762C168.968 0.399999 169.136 0.465332 169.266 0.595999C169.397 0.726666 169.462 0.894666 169.462 1.1V15.772H177.946C178.152 15.772 178.32 15.8467 178.45 15.996C178.581 16.1267 178.646 16.2947 178.646 16.5V19.3C178.646 19.4867 178.581 19.6547 178.45 19.804C178.32 19.9347 178.152 20 177.946 20H165.066ZM181.773 20C181.587 20 181.419 19.9347 181.269 19.804C181.139 19.6547 181.073 19.4867 181.073 19.3V1.1C181.073 0.894666 181.139 0.726666 181.269 0.595999C181.419 0.465332 181.587 0.399999 181.773 0.399999H185.525C185.731 0.399999 185.899 0.465332 186.029 0.595999C186.179 0.726666 186.253 0.894666 186.253 1.1V19.3C186.253 19.5053 186.179 19.6733 186.029 19.804C185.899 19.9347 185.731 20 185.525 20H181.773ZM190.851 20C190.665 20 190.497 19.9347 190.347 19.804C190.217 19.6547 190.151 19.4867 190.151 19.3V1.1C190.151 0.894666 190.217 0.726666 190.347 0.595999C190.497 0.465332 190.665 0.399999 190.851 0.399999H194.379C194.585 0.399999 194.753 0.465332 194.883 0.595999C195.014 0.726666 195.079 0.894666 195.079 1.1V7.316L200.259 0.931998C200.483 0.577332 200.847 0.399999 201.351 0.399999H205.383C205.551 0.399999 205.691 0.465332 205.803 0.595999C205.915 0.707999 205.971 0.838666 205.971 0.987999C205.971 1.11867 205.943 1.23067 205.887 1.324L199.167 9.78L206.391 19.076C206.466 19.1507 206.503 19.2627 206.503 19.412C206.503 19.5613 206.447 19.7013 206.335 19.832C206.223 19.944 206.083 20 205.915 20H201.743C201.295 20 200.922 19.8133 200.623 19.44L195.079 12.524V19.3C195.079 19.5053 195.014 19.6733 194.883 19.804C194.753 19.9347 194.585 20 194.379 20H190.851ZM209.418 20C209.231 20 209.063 19.9347 208.914 19.804C208.783 19.6547 208.718 19.4867 208.718 19.3V1.1C208.718 0.894666 208.783 0.726666 208.914 0.595999C209.063 0.465332 209.231 0.399999 209.418 0.399999H213.114C213.319 0.399999 213.487 0.465332 213.618 0.595999C213.748 0.726666 213.814 0.894666 213.814 1.1V15.772H222.298C222.503 15.772 222.671 15.8467 222.802 15.996C222.932 16.1267 222.998 16.2947 222.998 16.5V19.3C222.998 19.4867 222.932 19.6547 222.802 19.804C222.671 19.9347 222.503 20 222.298 20H209.418ZM224.305 20C224.156 20 224.016 19.944 223.885 19.832C223.773 19.7013 223.717 19.5613 223.717 19.412C223.717 19.3 223.726 19.216 223.745 19.16L230.325 1.184C230.381 0.959999 230.502 0.773333 230.689 0.623999C230.876 0.474665 231.118 0.399999 231.417 0.399999H235.561C235.86 0.399999 236.102 0.474665 236.289 0.623999C236.476 0.773333 236.597 0.959999 236.653 1.184L243.205 19.16L243.261 19.412C243.261 19.5613 243.196 19.7013 243.065 19.832C242.953 19.944 242.813 20 242.645 20H239.201C238.753 20 238.454 19.804 238.305 19.412L237.213 16.556H229.737L228.673 19.412C228.524 19.804 228.216 20 227.749 20H224.305ZM236.093 12.524L233.489 5.132L230.885 12.524H236.093ZM246.168 20C245.981 20 245.813 19.9347 245.664 19.804C245.533 19.6547 245.468 19.4867 245.468 19.3V1.1C245.468 0.894666 245.533 0.726666 245.664 0.595999C245.813 0.465332 245.981 0.399999 246.168 0.399999H253.784C256.229 0.399999 258.133 0.959999 259.496 2.08C260.877 3.18133 261.568 4.74933 261.568 6.784C261.568 8.09067 261.26 9.20133 260.644 10.116C260.028 11.0307 259.178 11.7307 258.096 12.216L261.932 19.104C261.988 19.216 262.016 19.3187 262.016 19.412C262.016 19.5613 261.95 19.7013 261.82 19.832C261.708 19.944 261.577 20 261.428 20H257.704C257.162 20 256.78 19.748 256.556 19.244L253.364 13.084H250.508V19.3C250.508 19.5053 250.433 19.6733 250.284 19.804C250.153 19.9347 249.985 20 249.78 20H246.168ZM253.728 9.108C254.586 9.108 255.24 8.90267 255.688 8.492C256.136 8.06267 256.36 7.47467 256.36 6.728C256.36 5.98133 256.136 5.39333 255.688 4.964C255.258 4.516 254.605 4.292 253.728 4.292H250.508V9.108H253.728ZM264.743 20C264.538 20 264.361 19.9347 264.211 19.804C264.081 19.6733 264.015 19.5053 264.015 19.3V17.312C264.015 16.752 264.249 16.2947 264.715 15.94L267.627 13.084C269.326 11.7773 270.614 10.76 271.491 10.032C272.369 9.304 273.031 8.64133 273.479 8.044C273.927 7.44667 274.151 6.87733 274.151 6.336C274.151 4.86133 273.423 4.124 271.967 4.124C271.202 4.124 270.614 4.35733 270.203 4.824C269.793 5.272 269.522 5.84133 269.391 6.532C269.279 6.96133 268.962 7.176 268.439 7.176H264.939C264.771 7.176 264.631 7.12 264.519 7.008C264.407 6.896 264.351 6.756 264.351 6.588C264.389 5.39333 264.715 4.30133 265.331 3.312C265.966 2.304 266.853 1.51067 267.991 0.931998C269.149 0.334665 270.474 0.0359983 271.967 0.0359983C273.535 0.0359983 274.879 0.287998 275.999 0.791999C277.119 1.296 277.969 2.00533 278.547 2.92C279.126 3.83467 279.415 4.89867 279.415 6.112C279.415 7.41867 279.005 8.61333 278.183 9.696C277.381 10.76 276.149 11.9173 274.487 13.168L271.911 15.772H279.107C279.313 15.772 279.481 15.8373 279.611 15.968C279.761 16.0987 279.835 16.2667 279.835 16.472V19.3C279.835 19.5053 279.761 19.6733 279.611 19.804C279.481 19.9347 279.313 20 279.107 20H264.743ZM291.833 20C291.647 20 291.479 19.9347 291.329 19.804C291.199 19.6547 291.133 19.4867 291.133 19.3V16.136H282.425C282.22 16.136 282.052 16.0707 281.921 15.94C281.791 15.8093 281.725 15.6413 281.725 15.436V12.776C281.725 12.496 281.828 12.2067 282.033 11.908L290.181 0.875999C290.443 0.558666 290.788 0.399999 291.217 0.399999H295.305C295.511 0.399999 295.679 0.465332 295.809 0.595999C295.94 0.726666 296.005 0.894666 296.005 1.1V11.964H298.469C298.693 11.964 298.871 12.0387 299.001 12.188C299.132 12.3187 299.197 12.4773 299.197 12.664V15.436C299.197 15.6413 299.132 15.8093 299.001 15.94C298.871 16.0707 298.703 16.136 298.497 16.136H296.005V19.3C296.005 19.4867 295.94 19.6547 295.809 19.804C295.679 19.9347 295.511 20 295.305 20H291.833ZM291.245 12.16V5.552L286.541 12.16H291.245Z" fill="#295091"/>
</svg>

<svg width="300" height="21" fill="none" xmlns="http://www.w3.org/2000/svg"><path d="M1.66 20a.745.745 0 0 1-.504-.196.745.745 0 0 1-.196-.504V1.1c0-.205.065-.373.196-.504A.746.746 0 0 1 1.66.4h2.968c.467 0 .784.177.952.532l6.832 10.752V1.1c0-.205.065-.373.196-.504A.745.745 0 0 1 13.112.4h3.36c.205 0 .373.065.504.196.13.13.196.299.196.504v18.172a.781.781 0 0 1-.196.532.682.682 0 0 1-.504.196h-2.996c-.41 0-.719-.177-.924-.532L5.72 9.108V19.3a.745.745 0 0 1-.196.504.682.682 0 0 1-.504.196H1.66zm18.305 0a.635.635 0 0 1-.42-.168.635.635 0 0 1-.168-.42c0-.112.01-.196.028-.252l6.58-17.976c.056-.224.177-.41.364-.56.187-.15.43-.224.728-.224h4.144c.299 0 .541.075.728.224.187.15.308.336.364.56l6.552 17.976.056.252c0 .15-.065.29-.196.42a.57.57 0 0 1-.42.168h-3.444c-.448 0-.747-.196-.896-.588l-1.092-2.856h-7.476l-1.064 2.856c-.15.392-.457.588-.924.588h-3.444zm11.788-7.476-2.604-7.392-2.604 7.392h5.208zM41.828 20a.745.745 0 0 1-.504-.196.745.745 0 0 1-.196-.504V1.1c0-.205.065-.373.196-.504A.745.745 0 0 1 41.828.4h3.024c.448 0 .775.205.98.616l4.928 8.82 4.928-8.82c.205-.41.532-.616.98-.616h2.996c.205 0 .373.065.504.196a.64.64 0 0 1 .224.504v18.2a.64.64 0 0 1-.224.504.682.682 0 0 1-.504.196h-3.332a.78.78 0 0 1-.532-.196.682.682 0 0 1-.196-.504V8.8l-3.136 5.852c-.243.43-.57.644-.98.644h-1.456c-.243 0-.439-.056-.588-.168-.15-.112-.28-.27-.392-.476L45.888 8.8v10.5a.746.746 0 0 1-.196.504.682.682 0 0 1-.504.196h-3.36zm21.367 0a.635.635 0 0 1-.42-.168.635.635 0 0 1-.167-.42c0-.112.009-.196.028-.252l6.58-17.976c.056-.224.177-.41.364-.56.186-.15.429-.224.728-.224h4.143c.3 0 .542.075.729.224.186.15.307.336.363.56l6.552 17.976.056.252c0 .15-.065.29-.195.42a.57.57 0 0 1-.42.168H78.09c-.447 0-.746-.196-.895-.588l-1.093-2.856h-7.475l-1.064 2.856c-.15.392-.458.588-.924.588h-3.444zm11.789-7.476-2.605-7.392-2.604 7.392h5.209zM85.058 20a.746.746 0 0 1-.504-.196.746.746 0 0 1-.196-.504V1.1c0-.205.066-.373.196-.504A.746.746 0 0 1 85.058.4h2.968c.467 0 .784.177.952.532l6.832 10.752V1.1c0-.205.066-.373.196-.504A.746.746 0 0 1 96.51.4h3.36a.68.68 0 0 1 .504.196.68.68 0 0 1 .196.504v18.172a.78.78 0 0 1-.196.532.68.68 0 0 1-.504.196h-2.996c-.41 0-.718-.177-.924-.532l-6.832-10.36V19.3a.745.745 0 0 1-.196.504.682.682 0 0 1-.504.196h-3.36zm27.517.28c-2.688 0-4.788-.653-6.3-1.96-1.512-1.325-2.314-3.201-2.408-5.628-.018-.541-.028-1.4-.028-2.576 0-1.176.01-2.035.028-2.576.094-2.37.906-4.2 2.436-5.488 1.55-1.288 3.64-1.932 6.272-1.932 1.774 0 3.314.29 4.62.868 1.326.579 2.334 1.316 3.024 2.212.71.896 1.083 1.82 1.12 2.772a.53.53 0 0 1-.196.42.57.57 0 0 1-.42.168h-4.088a1.01 1.01 0 0 1-.448-.084.654.654 0 0 1-.28-.308c-.242-.541-.625-1.008-1.148-1.4-.522-.41-1.25-.616-2.184-.616-2.221 0-3.388 1.176-3.5 3.528a77.717 77.717 0 0 0-.028 2.436c0 1.083.01 1.895.028 2.436.112 2.464 1.307 3.696 3.584 3.696 1.102 0 1.979-.28 2.632-.84.672-.579 1.008-1.456 1.008-2.632v-.532h-2.632a.683.683 0 0 1-.504-.196.784.784 0 0 1-.196-.532V9.444c0-.205.066-.373.196-.504a.64.64 0 0 1 .504-.224h7.056c.206 0 .374.075.504.224a.68.68 0 0 1 .196.504v3.192c0 1.587-.364 2.959-1.092 4.116-.728 1.139-1.764 2.016-3.108 2.632-1.325.597-2.874.896-4.648.896zm10.503-.28a.636.636 0 0 1-.42-.168.635.635 0 0 1-.168-.42c0-.112.01-.196.028-.252l6.58-17.976c.056-.224.178-.41.364-.56.187-.15.43-.224.728-.224h4.144c.299 0 .542.075.728.224.187.15.308.336.364.56l6.552 17.976.056.252c0 .15-.065.29-.196.42a.57.57 0 0 1-.42.168h-3.444c-.448 0-.746-.196-.896-.588l-1.092-2.856h-7.476l-1.064 2.856c-.149.392-.457.588-.924.588h-3.444zm11.788-7.476-2.604-7.392-2.604 7.392h5.208zM144.941 20a.748.748 0 0 1-.504-.196.749.749 0 0 1-.196-.504V1.1c0-.205.066-.373.196-.504a.748.748 0 0 1 .504-.196h2.968c.467 0 .784.177.952.532l6.832 10.752V1.1c0-.205.066-.373.196-.504a.748.748 0 0 1 .504-.196h3.36a.68.68 0 0 1 .504.196.68.68 0 0 1 .196.504v18.172a.78.78 0 0 1-.196.532.68.68 0 0 1-.504.196h-2.996c-.41 0-.718-.177-.924-.532l-6.832-10.36V19.3a.744.744 0 0 1-.196.504.68.68 0 0 1-.504.196h-3.36zm20.125 0a.748.748 0 0 1-.504-.196.749.749 0 0 1-.196-.504V1.1c0-.205.066-.373.196-.504a.748.748 0 0 1 .504-.196h3.696a.68.68 0 0 1 .504.196.68.68 0 0 1 .196.504v14.672h8.484c.206 0 .374.075.504.224.131.13.196.299.196.504v2.8a.744.744 0 0 1-.196.504.68.68 0 0 1-.504.196h-12.88zm16.707 0a.748.748 0 0 1-.504-.196.749.749 0 0 1-.196-.504V1.1c0-.205.066-.373.196-.504a.748.748 0 0 1 .504-.196h3.752a.68.68 0 0 1 .504.196c.15.13.224.299.224.504v18.2a.637.637 0 0 1-.224.504.68.68 0 0 1-.504.196h-3.752zm9.078 0a.748.748 0 0 1-.504-.196.749.749 0 0 1-.196-.504V1.1c0-.205.066-.373.196-.504a.748.748 0 0 1 .504-.196h3.528a.68.68 0 0 1 .504.196.68.68 0 0 1 .196.504v6.216l5.18-6.384c.224-.355.588-.532 1.092-.532h4.032a.53.53 0 0 1 .42.196.537.537 0 0 1 .168.392c0 .13-.028.243-.084.336l-6.72 8.456 7.224 9.296c.075.075.112.187.112.336 0 .15-.056.29-.168.42a.57.57 0 0 1-.42.168h-4.172c-.448 0-.821-.187-1.12-.56l-5.544-6.916V19.3a.681.681 0 0 1-.196.504.68.68 0 0 1-.504.196h-3.528zm18.567 0a.744.744 0 0 1-.504-.196.744.744 0 0 1-.196-.504V1.1a.68.68 0 0 1 .196-.504.744.744 0 0 1 .504-.196h3.696c.205 0 .373.065.504.196.13.13.196.299.196.504v14.672h8.484a.64.64 0 0 1 .504.224c.13.13.196.299.196.504v2.8a.749.749 0 0 1-.196.504.683.683 0 0 1-.504.196h-12.88zm14.887 0a.636.636 0 0 1-.42-.168.635.635 0 0 1-.168-.42c0-.112.009-.196.028-.252l6.58-17.976c.056-.224.177-.41.364-.56.187-.15.429-.224.728-.224h4.144c.299 0 .541.075.728.224.187.15.308.336.364.56l6.552 17.976.056.252c0 .15-.065.29-.196.42a.57.57 0 0 1-.42.168h-3.444c-.448 0-.747-.196-.896-.588l-1.092-2.856h-7.476l-1.064 2.856c-.149.392-.457.588-.924.588h-3.444zm11.788-7.476-2.604-7.392-2.604 7.392h5.208zM246.168 20a.744.744 0 0 1-.504-.196.744.744 0 0 1-.196-.504V1.1a.68.68 0 0 1 .196-.504.744.744 0 0 1 .504-.196h7.616c2.445 0 4.349.56 5.712 1.68 1.381 1.101 2.072 2.67 2.072 4.704 0 1.307-.308 2.417-.924 3.332-.616.915-1.466 1.615-2.548 2.1l3.836 6.888a.697.697 0 0 1 .084.308c0 .15-.066.29-.196.42a.538.538 0 0 1-.392.168h-3.724c-.542 0-.924-.252-1.148-.756l-3.192-6.16h-2.856V19.3a.64.64 0 0 1-.224.504.683.683 0 0 1-.504.196h-3.612zm7.56-10.892c.858 0 1.512-.205 1.96-.616.448-.43.672-1.017.672-1.764 0-.747-.224-1.335-.672-1.764-.43-.448-1.083-.672-1.96-.672h-3.22v4.816h3.22zM264.743 20a.783.783 0 0 1-.532-.196.685.685 0 0 1-.196-.504v-1.988c0-.56.234-1.017.7-1.372l2.912-2.856c1.699-1.307 2.987-2.324 3.864-3.052.878-.728 1.54-1.39 1.988-1.988.448-.597.672-1.167.672-1.708 0-1.475-.728-2.212-2.184-2.212-.765 0-1.353.233-1.764.7-.41.448-.681 1.017-.812 1.708-.112.43-.429.644-.952.644h-3.5a.57.57 0 0 1-.42-.168.57.57 0 0 1-.168-.42 6.477 6.477 0 0 1 .98-3.276c.635-1.008 1.522-1.801 2.66-2.38 1.158-.597 2.483-.896 3.976-.896 1.568 0 2.912.252 4.032.756s1.97 1.213 2.548 2.128c.579.915.868 1.979.868 3.192 0 1.307-.41 2.501-1.232 3.584-.802 1.064-2.034 2.221-3.696 3.472l-2.576 2.604h7.196a.68.68 0 0 1 .504.196c.15.13.224.299.224.504V19.3a.637.637 0 0 1-.224.504.68.68 0 0 1-.504.196h-14.364zm27.09 0a.748.748 0 0 1-.504-.196.749.749 0 0 1-.196-.504v-3.164h-8.708a.683.683 0 0 1-.504-.196.685.685 0 0 1-.196-.504v-2.66c0-.28.103-.57.308-.868L290.181.876c.262-.317.607-.476 1.036-.476h4.088a.68.68 0 0 1 .504.196.68.68 0 0 1 .196.504v10.864h2.464a.67.67 0 0 1 .532.224c.131.13.196.29.196.476v2.772a.681.681 0 0 1-.196.504.68.68 0 0 1-.504.196h-2.492V19.3a.744.744 0 0 1-.196.504.68.68 0 0 1-.504.196h-3.472zm-.588-7.84V5.552l-4.704 6.608h4.704z" fill="#295091"/></svg>
